images/socials-icon-3.svg

<svg width="16" height="16" viewBox="0 0 16 16" fill="none" xmlns="http://www.w3.org/2000/svg">
<g clip-path="url(#clip0_130_21747)">
<path fill-rule="evenodd" clip-rule="evenodd" d="M0.321094 16H3.62266V5.33313H0.321094V16ZM8.90078 10.4006C8.90078 8.90125 9.59109 8.0075 10.9127 8.0075C12.1267 8.0075 12.7098 8.86531 12.7098 10.4006V16H15.9964C15.9964 16 15.9964 12.1038 15.9964 9.24656C15.9964 6.38938 14.3767 5.00781 12.1152 5.00781C9.85266 5.0075 8.90078 6.77 8.90078 6.77V5.33313H5.73359V16H8.90078C8.90078 16 8.90078 12.0441 8.90078 10.4006ZM1.95641 3.93688C3.03453 3.93688 3.90891 3.05469 3.90891 1.96812C3.90891 0.88125 3.03453 0 1.95641 0C0.877656 0 0.00390625 0.88125 0.00390625 1.96812C0.00390625 3.05469 0.877656 3.93688 1.95641 3.93688Z" fill="white"/>
</g>
<defs>
<clipPath id="clip0_130_21747">
<rect width="16" height="16" fill="white"/>
</clipPath>
</defs>
</svg>

<svg width="16" height="16" fill="none" xmlns="http://www.w3.org/2000/svg"><g clip-path="url(#clip0_130_21747)"><path fill-rule="evenodd" clip-rule="evenodd" d="M.321 16h3.302V5.333H.32V16zm8.58-5.6c0-1.499.69-2.393 2.012-2.393 1.214 0 1.797.858 1.797 2.394V16h3.286V9.247c0-2.858-1.62-4.24-3.88-4.24C9.852 5.008 8.9 6.77 8.9 6.77V5.333H5.734V16H8.9v-5.6zM1.956 3.938a1.961 1.961 0 001.954-1.97A1.96 1.96 0 001.956 0 1.96 1.96 0 00.004 1.968a1.96 1.96 0 001.952 1.969z" fill="#fff"/></g><defs><clipPath id="clip0_130_21747"><path fill="#fff" d="M0 0h16v16H0z"/></clipPath></defs></svg>
